packages/icons/assets/Contains.svg

<svg viewBox="8 8 16 16" xmlns="http://www.w3.org/2000/svg"><g fill="#414141"><path d="M14.9697 15.7178C15.2139 15.3988 15.6126 15.2393 16.166 15.2393C16.6771 15.2393 17.0547 15.4102 17.2988 15.752C17.543 16.0938 17.665 16.613 17.665 17.3096C17.665 17.9899 17.543 18.5124 17.2988 18.877C17.0547 19.2383 16.6836 19.4189 16.1855 19.4189C15.6322 19.4189 15.2301 19.2578 14.9795 18.9355C14.7288 18.61 14.6035 18.0713 14.6035 17.3193C14.6035 16.5674 14.7256 16.0335 14.9697 15.7178Z"/><path fill-rule="evenodd" clip-rule="evenodd" d="M19 8H13V24H19V8ZM17.9189 15.2832C17.5316 14.8014 16.9863 14.5605 16.2832 14.5605C15.541 14.5605 14.9811 14.8275 14.6035 15.3613H14.5645C14.5905 15.0326 14.6035 14.6615 14.6035 14.248V12.4023H13.793V20H14.374L14.5449 19.3115H14.6035C14.7988 19.5785 15.0397 19.777 15.3262 19.9072C15.6159 20.0342 15.9349 20.0977 16.2832 20.0977C16.9798 20.0977 17.5234 19.8551 17.9141 19.3701C18.3079 18.8818 18.5049 18.1982 18.5049 17.3193C18.5049 16.4404 18.3096 15.7617 17.9189 15.2832Z"/><path d="M11.8672 20L11.7061 19.2383H11.667C11.4001 19.5736 11.1331 19.8014 10.8662 19.9219C10.6025 20.0391 10.2721 20.0977 9.875 20.0977C9.3444 20.0977 8.92773 19.9609 8.625 19.6875C8.32552 19.4141 8.17578 19.0251 8.17578 18.5205C8.17578 17.4398 9.04004 16.8734 10.7686 16.8213L11.6768 16.792V16.46C11.6768 16.04 11.5856 15.7308 11.4033 15.5322C11.2243 15.3304 10.9362 15.2295 10.5391 15.2295C10.0931 15.2295 9.58854 15.3662 9.02539 15.6396L8.77637 15.0195C9.04004 14.8763 9.32812 14.764 9.64062 14.6826C9.95638 14.6012 10.2721 14.5605 10.5879 14.5605C11.2259 14.5605 11.6979 14.7021 12.0039 14.9854C12.3132 15.2686 12.4678 15.7227 12.4678 16.3477V20H11.8672ZM10.0361 19.4287C10.5407 19.4287 10.9362 19.2904 11.2227 19.0137C11.5124 18.737 11.6572 18.3496 11.6572 17.8516V17.3682L10.8467 17.4023C10.2021 17.4251 9.73665 17.526 9.4502 17.7051C9.16699 17.8809 9.02539 18.1559 9.02539 18.5303C9.02539 18.8232 9.11328 19.0462 9.28906 19.1992C9.4681 19.3522 9.71712 19.4287 10.0361 19.4287Z"/><path d="M22.1152 20.0977C21.3405 20.0977 20.7399 19.86 20.3135 19.3848C19.8903 18.9062 19.6787 18.2308 19.6787 17.3584C19.6787 16.4632 19.8936 15.7715 20.3232 15.2832C20.7562 14.7949 21.3714 14.5508 22.1689 14.5508C22.4261 14.5508 22.6833 14.5785 22.9404 14.6338C23.1976 14.6891 23.3994 14.7542 23.5459 14.8291L23.2969 15.5176C23.1178 15.446 22.9225 15.3874 22.7109 15.3418C22.4993 15.293 22.3122 15.2686 22.1494 15.2686C21.0622 15.2686 20.5186 15.9619 20.5186 17.3486C20.5186 18.0062 20.6504 18.5107 20.9141 18.8623C21.181 19.2139 21.5749 19.3896 22.0957 19.3896C22.5417 19.3896 22.999 19.2936 23.4678 19.1016V19.8193C23.1097 20.0049 22.6589 20.0977 22.1152 20.0977Z"/></g></svg>

<svg xmlns="http://www.w3.org/2000/svg" viewBox="8 8 16 16"><g fill="#414141"><path d="M14.97 15.72q.36-.48 1.2-.48.75 0 1.13.51.36.51.36 1.56 0 1.02-.36 1.57-.37.54-1.11.54-.84 0-1.21-.48-.38-.5-.38-1.62t.37-1.6"/><path fill-rule="evenodd" d="M19 8h-6v16h6zm-1.08 7.28a2 2 0 0 0-1.64-.72q-1.11 0-1.68.8h-.04q.04-.5.04-1.11V12.4h-.8V20h.57l.17-.69h.06q.3.4.73.6t.95.19q1.05 0 1.63-.73.6-.73.6-2.05t-.6-2.04" clip-rule="evenodd"/><path d="m11.87 20-.16-.76h-.04q-.4.5-.8.68t-1 .18a1.8 1.8 0 0 1-1.24-.41q-.45-.41-.45-1.17 0-1.62 2.59-1.7l.9-.03v-.33q0-.63-.27-.93t-.86-.3q-.67 0-1.51.41l-.25-.62a4 4 0 0 1 1.8-.46q.97 0 1.42.43.47.42.47 1.36V20zm-1.83-.57q.76 0 1.18-.42.45-.4.44-1.16v-.48l-.81.03q-.97.05-1.4.3-.42.27-.42.83 0 .45.26.67.27.23.75.23m12.08.67a2.3 2.3 0 0 1-1.8-.72 3 3 0 0 1-.64-2.02q0-1.35.64-2.08a2.3 2.3 0 0 1 1.85-.73 4 4 0 0 1 1.38.28l-.25.69a4 4 0 0 0-1.15-.25q-1.63 0-1.63 2.08 0 .99.4 1.51.39.53 1.18.53.66 0 1.37-.29v.72q-.54.27-1.35.28"/></g></svg>
